X: 31158
T: Paddy Fahey's
R: reel
M: 4/4
K: Gmajor
|:BG G2 BdcA|B3d cAFG|AGGF GBdg|fgaf gedc|
BG G2 BdcA|B3d cAFG|AGGF GBdg|1 fgaf g3c:|2 fgaf gfga||
|:bg g2 dg g2|fdcA FGAc|dggf gedc|dgfa gfga|
bg g2 dg g2|fdcA FGAc|dggf gedc|1 dgfa g3a:|2 dgfa gedc||

